X:1
T:James Gibb editions
T:Oculus non vidit - Lasso
T:#
%%score [ 1 2 ]
L:1/8
Q:1/4=130
M:4/4
K:C
V:1 treble nm="Soprano" snm="S"
V:2 treble nm="Alto" snm="A"
V:1
"^Oculus non vidit""^Orlando di Lasso\n(1532-94)" e6 d2 | c2 A2 (c3 d | e4) A4 | z2 (AB cdec | %4
w: O- cu-|lus non vi- *|* dit,|nec * * * * *|
 f2) (de fd f2) | e4 A4 |[M:4/4] (A3 B cBcd | e8) | e4 z2 c2 | f4 d2 g2- | g2 f2 e4 | (A4 B4) | %12
w: * au- * * * *|ris au-|di\- * * * * *||vit, nec|in cor ho\-|* mi- nis|a\- *|
 (c3 A d3 B | e3 c fe e2- | ed/c/ d2) e4- | e4 z2 c2 | (cdef g2) (c2- | cB A2) G4 | A4 c4 | B4 z4 | %20
w: scen\- * * *||* * * * dit,|* quae|prae\- * * * * pa\-|* * * ra-|vit De-|us|
 e4 z2 g2 | (d3 e f2) d2 | (A3 Bcd e2) | (c3 A f4) | (e3 f g4) | z2 g2 (d3 e | f2) d2 (ABcd | %27
w: his, qui|di\- * * li-|gunt * * * *|il\- * *|lum, * *|qui di\- *|* li- gunt * * *|
 e2) (A3 Bcd |[Q:1/4=127] e3[Q:1/4=125] d[Q:1/4=124] c[Q:1/4=122]d[Q:1/4=121]e[Q:1/4=120]f | %29
w: * il\- * * *||
[Q:1/4=118] e[Q:1/4=117]A[Q:1/4=115] d3[Q:1/4=113] ^c/[Q:1/4=112]B/[Q:1/4=111] c2) | %30
w: |
[Q:1/4=110] d16 |] %31
w: lum.|
V:2
 z8 | z4 A4- | A2 G2 F2 D2 | (F3 G A4) | D4 z2 (A,B, | CDEC F2) (DE |[M:4/4] FD F2) E2 (A,B, | %7
w: |O\-|* cu- lus non|vi\- * *|dit, nec\- *|* * * * * au\- *|* * * ris au\- *|
 CDEF G2) (A2- | A^G/^F/ G2) A4 | z2 D2 G4 | E2 A4 G2 | F2 D4 (E2- | E2 F3 D G2 | GE A3 G GF/E/ | %14
w: * * * * * di\-|* * * * vit,|nec in|cor ho- mi-|nis a- scen\-|||
 F4) E4 | z2 c2 (cBAG | F2) (C3 D E2 | F4) E2 C2 | (CA, F3 E A2- | A^G/^F/ G2) A4 | z4 E4 | %21
w: * dit,|quae prae\- * * *|* pa\- * *|* ra- vit|De\- * * * *|* * * * us|his,|
 z2 G2 (D3 E | F2) D2 (A,B,CD | E2) (F3 D A2- | AG A2) E2 c2 | (G3 A _B2) G2 | (D3 EFG A2- | %27
w: qui di\- *|* li- gunt * * *|* il\- * *|* * * lum, qui|di\- * * li-|gunt * * * *|
 AGFE D2 A2- | AGA_B) A3 (G/F/ | GF FE/D/ E4 | D16) |] %31
w: |* * * * il- lum. *|||

